!!!!SEGMENT: pl-wtm--r-2139--001_wysocki-kasper-napoleon--la-legerte-n-1.krn
!!!cenid: 18xx:4368
!!!COM: Wysocki, Kasper Napoleon
!!!COM-rismID: pe41024789
!!!CDT: 1810/12/06-1850/09/21
!!!CNT: Polish
!!!GTL: La Légèrté
!!!OTL: N. 1.
!!!OMV: 001
!!!PDT:
!!!AGN: Secular; Waltz
!!!SMS-siglum: PL-Wtm
!!!SMS-shelfmark: R 2139
!!!SMS-shelfwork: 001-001 G
!!!SMS-variant:
!!!SMS-altvar:
!!!NIFC-rismSourceID: 1001139896
!!!NIFC-rismChildID: 1001139897
!!!NIFC-islandoraID: pl-wtm:29947
!!!URL-pdf-islandora: https://repozytorium.nifc.pl/islandora/object/pl-wtm:29947/datastream/PDF/view
!!!URL-scan: https://polish.musicsources.pl/pl/lokalizacje/galeria/rekopisy/6569/2 @EN{Scan on Polish Music Sources Website} @PL{Skany w portalu Dziedzictwo Muzyki Polskiej w otwartym dostępie}
!!!ONB-nifc:
!!!AIN: 2 piano
!!!key: G
!!!OMD: N 1.
**kern	**kern	**dynam
*part2	*part1	*part1
*staff2	*staff1	*
*>[A,A,B,B]	*>[A,A,B,B]	*>[A,A,B,B]
*>A	*>A	*>A
*I"fortepian	*I"fortepian	*
*Ipiano	*Ipiano	*
*ICklav	*ICklav	*
*clefF4	*clefG2	*
*k[f#]	*k[f#]	*
*G:	*G:	*
*M3/4	*M3/4	*
=	=	=
4r	4dd\	p
=1	=1	=1
*ped	*	*
4GG/	8ddd^^\L	.
.	8dd\	.
4B 4G\	8ddd\	.
.	8ddd\	.
4D\	8ddd\	.
.	8ddd\J	.
=2	=2	=2
4GG/	8ggg^^\L	.
.	8gg\	.
4B 4G\	8bb\	.
.	8bb\	.
4D\	8bb\	.
.	8bb\J	.
=3	=3	=3
4GG/	8ddd^^\L	.
.	8dd\	.
4B 4G\	8gg\	.
.	8gg\	.
4D\	8gg\	.
.	8gg\J	.
=4	=4	=4
4GG/	8bb^^\L	.
.	8b\	.
4B 4G\	8dd\	.
.	8dd\	.
4D\	8dd\	.
.	8dd\J	.
*Xped	*	*
!!LO:LB:g=original
=5	=5	=5
4DD/	8ee-X^^\L	.
.	8dd\	.
4c 4A 4F#\	8dd\	.
.	8dd\	.
4D\	8dd\	.
.	8dd\J	.
=6	=6	=6
4DD/	8ccc^^\L	.
.	8dd\	.
4c 4A 4F#\	8dd\	.
.	8dd\	.
4D\	8dd\	.
.	8dd\J	.
=7	=7	=7
4GG/	8een^^\L	.
.	8dd\	.
4B 4G\	8dd\	.
.	8dd\	.
4D\	8dd\	.
.	8dd\J	.
=8	=8	=8
4GG/	8bb^^\L	.
.	8dd\	.
4B 4G\	8dd\	.
.	8dd\	.
4D\	8dd\	.
.	8dd\J	.
=9	=9	=9
*	*ped	*
4GG/	8ddd^^\L	.
.	8dd\	.
4B 4G\	8dd\	.
.	8dd\	.
4D\	8dd\	.
.	8dd\J	.
!!LO:LB:g=original
=10	=10	=10
4GG/	8ggg^^\L	.
.	8gg\	.
4B 4G\	8bb\	.
.	8bb\	.
4D\	8bb\	.
.	8bb\J	.
=11	=11	=11
4GG/	8ddd^^\L	.
.	8dd\	.
4B 4G\	8gg\	.
.	8gg\	.
4D\	8gg\	.
.	8gg\J	.
=12	=12	=12
4GG/	8bb^^\L	.
.	8b\	.
4B 4G\	8dd\	.
.	8dd\	.
4D\	8dd\	.
.	8dd\J	.
*Xped	*	*
=13	=13	=13
4DD/	8ee-X^^\L	.
.	8dd\	.
4c 4A 4F#\	8dd\	.
.	8dd\	.
4D\	8dd\	.
.	8dd\J	.
=14	=14	=14
4DD/	(4.ddd^^\	.
4c 4A 4F#\	.	.
.	8ccc\L	.
4D\	8aa\	.
.	8ff#\J)	.
!!LO:LB:g=original
=15	=15	=15
4B 4G\	8gg^^\L	.
.	8dd\	.
4r	8dd\	.
.	8dd\	.
4c 4F# 4D\	8bb\	.
.	8aa\J	.
=16	=16	=16
4B 4G\	4gg\	.
4GG/	4r	.
=:|!|:	=:|!|:	=:|!|:
*>B	*>B	*>B
*	*8va	*
*	*ped	*
4r	8bb\L	.
.	8bb\J	.
=17	=17	=17
*^	*	*
*	*2\right	*	*
!	!	!	!LO:DY:t=p.
4r	2.BB\	8bb\L	p
.	.	8bb\	.
4B 4G 4E/	.	8bb\	.
.	.	8bb\	.
4B 4G 4E/	.	8bb\	.
.	.	8bb\J	.
=18	=18	=18	=18
4r	2.BB\	8eee\L	.
.	.	8eee\	.
4B 4G 4E/	.	8eee\	.
.	.	8eee\	.
4B 4G 4E/	.	8eee\	.
.	.	8eee\J	.
=19	=19	=19	=19
4r	2.BB\	8fff#\L	.
.	.	8fff#\	.
4B 4A 4D#X/	.	8fff#\	.
.	.	8fff#\	.
4B 4A 4D#/	.	8fff#\	.
.	.	8fff#\J	.
!!LO:LB:g=original
=20	=20	=20	=20
4r	2.E\	4.ggg\	.
4B 4G/	.	.	.
.	.	8fff#\	.
4B 4G/	.	4eee\	.
*Xped	*	*	*
*v	*v	*	*
=21	=21	=21
4GG/	8ddd\L	.
.	8ddd\	.
4B 4G\	8ddd\	.
.	8ddd\	.
4D\	8ggg\	.
.	8bb\J	.
=22	=22	=22
4GG/	8bb\L	.
.	8bb\	.
4B 4G\	8bb\	.
.	8bb\	.
4D\	8ddd\	.
.	8gg\J	.
=23	=23	=23
4GG/	8aa\L	.
.	8aa\	.
4B 4G\	8aa\	.
.	8aa\	.
4D\	8ccc\	.
.	8ff#\J	.
=24	=24	=24
4B 4G\	4gg/	.
*	*X8va	*
4GG/	4r	.
=:|!	=:|!	=:|!
*-	*-	*-
!!!system-decoration: {(*)}
!!!ENC: Filip Voros
!!!END: 2023-07-12
!!!ENC: Marta Lawrence
!!!END: 2023-07-21
!!!YEC: Copyright 2022 Narodowy Instytut Fryderyka Chopina (https://polishscores.org)
!!!YEM: License CC-BY-4.0 (https://creativecommons.org/licenses/by/4.0)
